X:1
T:Tout ce qu'on peult
T:Tout ce qu'on peult
T:Jean de Castro
T:Source : Livre de chansons à 3 parties---Paris---A.le Roy & R.Ballard---1575. Editor : André Vierendeels (25/09/15).
T:Notes : Original clefs : G2, C2, C3 Editorial accidentals above the staff
C:Jean de Castro
%%score [ 1 2 3 ]
L:1/8
Q:1/4=100
M:2/2
K:F
V:1 treble nm="Superius" snm="S"
V:2 treble nm="Altus" snm="A"
V:3 treble-8 nm="Tenor" snm="T"
V:1
 z8 | z4 G4 | B4 B4 | A4 =B4 | c6 A2 | d4 f4 | e4 d4 | c4 =B4 | c4 A4 | =B8 | z4 G4 | B4 B4 | %12
w: |Tout|ce qu'on|peult en|el- le|veoir, n'est|que dou-|ceur et|a- mi-|tié,|beaul-|té, bon-|
 A4 =B4 | c6 A2 | d4 f4 | e4 d4 | c4 =B4 | c4 A4 | =B2 d2 d2 e2 | f6 e2 | d4 c4 | d8 | z2 c4 B2 | %23
w: té et|un vou-|loir, tout|plein d'a-|mou- reu-|se pi-|tié, mais je n'en|suis e-|di- fi-|é,|de rien|
 A2 f4 e2 | d4 z2 B2 | B2 G2 c4 | d4 d2 d2 | f4 e4 | d4 c4 | d2 A2 B4 |"^-natural" A4 f4- | %31
w: mieux, de rien|mieux, car-|le re- gard|d'el- le me|mest en|u- ne|pei- ne tel-|le, me|
 f2 d4 c2 | d4 e4 | f2 e2 d4 | ^c4 e4 | f6 d2 | c4 d4 | d4 c4 | d4 d4 | d6 G2 | c4 B4 | A4 A4 | %42
w: _ met en|u- ne|pei- ne tel-|le, que|ne le|puis di-|re'à moy-|tié, que|ne le|puis di-|re'à moy-|
 =B4 z2 d2 | d2 d2 f4 | z2 A2 A2 A2 | c4 c4 | A2 A2 B4 | A8- | A8- | A8 | z8 | z8 | A4 A2 A2 | %53
w: tié, quand|je la voy,|quand je la|voy, je|me la- men-|te,|_||||si ne la|
 B4 G4 | A8- | A4 c4 | B4 A4 | z8 | d4 d2 d2 | f2 e2 d2 d2 | d2 A2 z2 d2 | c2 f2 e2 c2 | %62
w: voy, je|me|_ tour-|men- te,||si ne la|voy, je me tour-|men- te, je|me tour- men- te,|
 z2 d2 c2 c2 | d2 A2 z2 f2 | d2 g2 e4 | d4 A4 |: B8- | B4 A4 | c4 d4- | d4 c4- | c4 c4 | %71
w: je me tour-|men- te, je|me tour- men-|te, le|doux|_ n'est|ja- mays|_ sans|_ l'a-|
 B2 d2 f3 e | d2 c2 d2 e2 | f4 z2 c2 | d3 c B2 B2 | c4 A4 |1 B4 G4 :|2 G8- || G8- | G8- | %80
w: mer, voy- la que|c'est de trop ay-|mer, voy-|la que c'est de|trop ay-|mer, le|mer.|_||
 !fermata!G8 |] %81
w: |
V:2
 D8 | G8- | G4 G4 | ^F4 F4 | G4 A4 | B4 A4 | c4 B4 | A4 G4 | G4 ^F4 | G4 D4 | G8- | G4 G4 | %12
w: Tout|ce|_ qu'on|peult en|el- le|veoir, n'est|que dou-|ceur et|a- mi-|tié, beaul-|té,|_ bon-|
 ^F4 F4 | G4 A4 | B4 A4 | c4 B4 | A4 G4 | G4 ^F4 |"^b" G2 G2 B2 A2 | F2 F2 F2 G2 | A6 G2 | A4 B4 | %22
w: té et|un vou-|loir, tout|plein d'a-|mou- reu-|se pi-|tié, mais je n'en|suis, mais je n'en|suis e-|di- fi-|
 A2 A4 G2 | F2 D4 E2 | F2 F2 D2 D2 | G4 G4 | B6 B2 | A6 G2 | B4 A4 | G2 ^F2 G4 | %30
w: é, de rien|mieux, de rien|mieux, car le re-|gard d'el-|le me|mest en|u- ne|pei- ne tel-|
"^#""^-natural" F4 z2 F2 | A2 A2 G2 G2 | A4 c4 | F2 A3 G/F/ G2 | A4 z2 A2 | A4 B4 | G4 G4 | F4 E4 | %38
w: le, me|mest en u- ne|pei- ne|tel- * * * *|le, que|ne le|puis di-|re'à moy-|
 G4 G4 | B6 B2 | A4 G4 | G4 ^F4 | G8 | z2 D2 D2 D2 | F4 D4 | A4 G4 | F8- | F4 E4 | F8 | E4 z2 E2 | %50
w: tié, que|ne le|puis di-|re'à moy-|tié,|quand je la|voy, je|me,- je|me|_ la-|men-|te, si|
 E2 E2 F4 | D4 G4- | G4 ^F4 | G4 D4 | z8 | z8 | z8 | G4 A2 A2 | B4 G4 | A2 c2 B4 | A2 ^F2 F2 F2 | %61
w: ne la voy,|je me|_ tour-|men- te,||||si ne la|voy, je|me tour- men-|te, je me tour-|
 A4 G4 | z2 A2 A2 G2 | A2 ^F2 z2 A2 | =B2 B2 c4 | A4 ^F4 |: G8- | G4 ^F4 | G4 B4- | B4 A4- | %70
w: men- te,|je me tour-|men- te, je|me tour- men-|te, le|doux|_ n'est|ja- mays|_ sans|
 A4 G4 | F8 | z4 z2 G2 | B3 B A2 A2 | B3 A G2 G2 | G4 ^F4 |1 G4 D4 :|2 G2 D2 _E3 B, || C4 D4 | %79
w: _ l'a-|mer,|voy-|la que c'est, voy-|la que c'est de|trop ay-|mer, le|mer, voy- la que|c'est de|
 _E4 E4 | !fermata!D8 |] %81
w: trop ay-|mer.|
V:3
 z8 | z8 | G8 | d4 d4 | c2 c2 f2 f2 | g4 d4 | A4 B4 | f4 g4 | c4 d4 | G8- | G8 | z4 G4 | d4 d4 | %13
w: ||Tout|ce qu'on|peult en el- le|veoir, n'est|que dou-|ceur et|a- mi-|tié,|_|beaul-|té, bon-|
 c2 c2 f2 f2 | g4 d4 | A4 B4 | f4 g4 | c4 d4 | G4 z4 | z2 d2 d2 e2 | f6 e2 | d4 G4 | A4 f2 g2 | %23
w: té et un vou-|loir, tout|plein d'a-|mou- reu-|se pi-|tié,|mais je n'en|suis e-|di- fi-|é, de rien|
 d4 B2 c2 | d2 B2 B2 G2 | _e4 c4 | g8 | z8 | z8 | z8 | z4 d4 | f4 e4 | d4 c4 | d2 A2 B4 | A4 A4 | %35
w: mieux, de rien|mieux, car le re-|gard d'el-|le,||||me|mest en|u- ne|pei- ne tel-|le, que|
 d6 B2 | c4 G4 | A4 A4 | G8 | z8 | z8 | z8 | G4 G2 G2 | B4 z2 d2 | d2 d2 f4- | f4 c4 | d8- | %47
w: ne le|puis di-|re'à moy-|tié,||||quand je la|voy, quand-|je la voy,|_ je|me|
 d4 ^c4 | d8 | A8 | z2 A2 A2 A2 | B4 G4 | d4 d4 | G8 | d2 d2 d2 d2 | f4 c4 | d4 f4 | e4 d4 | %58
w: _ la-|men-|te,|si ne la|voy, je|me tour-|men-|te, je me tour-|men- te,|si ne|la voy,|
"^-natural" z8 | z2 c2 g2 G2 | d4 d2 d2 |"^-natural" f2 F2 c4 | G2 d2 f2 e2 | d4 A2 f2 | g2 g2 a4 | %65
w: |je me tour-|men- te, je|me tour- men-|te, je me tour-|men- te, je|me tour men-|
 d4 d4 |: G8- | G4 d4 | c4 B4- | B4 f4- | f4 e4 | d4 z2 d2 | f3 e d2 c2 | B2 B2 f4 | %74
w: te, le|doux|_ n'est|ja- mays|_ sans|_ l'a-|mer, voy-|la que c'est de|trop ay- mer,|
"^b" z2 B2 e3 d | c2 c2 d2 d2 |1 G4 G4 :|2 G2 G2 c3 d || _e4 B4 | c4 c4 | !fermata!G8 |] %81
w: voy- la que|c'est de trop ay-|mer, le|mer, voy- la que|c'est de|trop ay-|mer.|

